symbols/web/not_started/materialsymbolsoutlined/not_started_wght600gradN25_24px.svg

<svg xmlns="http://www.w3.org/2000/svg" height="24" width="24"><path d="M7.95 16.05h2.1v-8.1h-2.1Zm4 .05 6.125-4.1-6.125-4.1Zm.05 6.125q-2.125 0-4-.8t-3.25-2.187q-1.375-1.388-2.175-3.25-.8-1.863-.8-3.988t.8-4q.8-1.875 2.188-3.25Q6.15 3.375 8.012 2.575q1.863-.8 3.988-.8t4 .8q1.875.8 3.25 2.187 1.375 1.388 2.175 3.25.8 1.863.8 3.988t-.8 4q-.8 1.875-2.187 3.25-1.388 1.375-3.25 2.175-1.863.8-3.988.8Zm0-2.525q3.225 0 5.463-2.238Q19.7 15.225 19.7 12q0-3.225-2.237-5.463Q15.225 4.3 12 4.3T6.537 6.537Q4.3 8.775 4.3 12t2.237 5.462Q8.775 19.7 12 19.7Zm0-7.7Z"/></svg>

<svg xmlns="http://www.w3.org/2000/svg" height="24" width="24"><path d="M11.95 16.1 18.075 12 11.95 7.9ZM7.95 16.05H10.05V7.95H7.95ZM12 22.225Q9.85 22.225 7.988 21.425Q6.125 20.625 4.75 19.25Q3.375 17.875 2.575 16.012Q1.775 14.15 1.775 12Q1.775 9.85 2.575 7.987Q3.375 6.125 4.75 4.75Q6.125 3.375 7.988 2.575Q9.85 1.775 12 1.775Q14.15 1.775 16.012 2.575Q17.875 3.375 19.25 4.75Q20.625 6.125 21.425 7.987Q22.225 9.85 22.225 12Q22.225 14.15 21.425 16.012Q20.625 17.875 19.25 19.25Q17.875 20.625 16.012 21.425Q14.15 22.225 12 22.225ZM12 19.7Q15.225 19.7 17.463 17.462Q19.7 15.225 19.7 12Q19.7 8.775 17.463 6.537Q15.225 4.3 12 4.3Q8.775 4.3 6.537 6.537Q4.3 8.775 4.3 12Q4.3 15.225 6.537 17.462Q8.775 19.7 12 19.7ZM12 12Q12 12 12 12Q12 12 12 12Q12 12 12 12Q12 12 12 12Q12 12 12 12Q12 12 12 12Q12 12 12 12Q12 12 12 12Z"/></svg>
